ukui-icon-theme-default/scalable/mimetypes/application-x-archive.svg

<?xml version="1.0" encoding="utf-8"?>
<!-- Generator: Adobe Illustrator 24.0.0, SVG Export Plug-In . SVG Version: 6.00 Build 0)  -->
<svg version="1.1" id="图层_1" xmlns="http://www.w3.org/2000/svg" xmlns:xlink="http://www.w3.org/1999/xlink" x="0px" y="0px"
	 viewBox="0 0 128 128" enable-background="new 0 0 128 128" xml:space="preserve">
<title>128</title>
<g id="压缩文件">
	<g id="_128">
		<g id="底色-浅橙">
			
				<linearGradient id="_48_1_" gradientUnits="userSpaceOnUse" x1="64" y1="-582" x2="64" y2="-694" gradientTransform="matrix(1 0 0 -1 0 -574)">
				<stop  offset="0" style="stop-color:#FEDA3E"/>
				<stop  offset="1" style="stop-color:#E5B104"/>
			</linearGradient>
			<path id="_48" fill="url(#_48_1_)" d="M109,92V20c0-6.6-5.4-12-12-12H31c-6.6,0-12,5.4-12,12v88c0,6.6,5.4,12,12,12h50L109,92z"
				/>
			
				<linearGradient id="SVGID_1_" gradientUnits="userSpaceOnUse" x1="84.8071" y1="-671.5135" x2="93.7071" y2="-678.9235" gradientTransform="matrix(1 0 0 -1 0 -574)">
				<stop  offset="0" style="stop-color:#FFFFFF;stop-opacity:0.4"/>
				<stop  offset="1" style="stop-color:#FFFFFF;stop-opacity:0.2"/>
			</linearGradient>
			<path fill="url(#SVGID_1_)" d="M90,92h19l-28,28v-19C81,96,85,92,90,92L90,92z"/>
		</g>
		<path fill="#907C3B" d="M36,68v10c0,4.4,3.6,8,8,8l0,0c4.4,0,8-3.6,8-8V68H36z M47,82h-6v-6h6V82z"/>
		<rect x="36" y="8" fill="#EAEAEA" width="16" height="60"/>
		<rect x="42" y="12" fill="#907C3B" width="10" height="4"/>
		<rect x="42" y="20" fill="#907C3B" width="10" height="4"/>
		<rect x="42" y="28" fill="#907C3B" width="10" height="4"/>
		<rect x="42" y="36" fill="#907C3B" width="10" height="4"/>
		<rect x="42" y="44" fill="#907C3B" width="10" height="4"/>
		<rect x="42" y="52" fill="#907C3B" width="10" height="4"/>
		<rect x="42" y="60" fill="#907C3B" width="10" height="4"/>
		<rect x="36" y="32" fill="#907C3B" width="10" height="4"/>
		<rect x="36" y="24" fill="#907C3B" width="10" height="4"/>
		<rect x="36" y="16" fill="#907C3B" width="10" height="4"/>
		<rect x="36" y="8" fill="#907C3B" width="10" height="4"/>
		<rect x="36" y="40" fill="#907C3B" width="10" height="4"/>
		<rect x="36" y="56" fill="#907C3B" width="10" height="4"/>
		<rect x="36" y="48" fill="#907C3B" width="10" height="4"/>
	</g>
</g>
</svg>

<svg xmlns="http://www.w3.org/2000/svg" xmlns:xlink="http://www.w3.org/1999/xlink" viewBox="0 0 128 128"><defs><style>.cls-1{fill:url(#未命名的渐变_19);}.cls-2{fill:url(#未命名的渐变_158);}.cls-3{fill:#907c3b;}.cls-4{fill:#eaeaea;}</style><linearGradient id="未命名的渐变_19" x1="64" y1="710" x2="64" y2="822" gradientTransform="translate(0 -702)" gradientUnits="userSpaceOnUse"><stop offset="0" stop-color="#feda3e"/><stop offset="1" stop-color="#e5b104"/></linearGradient><linearGradient id="未命名的渐变_158" x1="84.81" y1="799.51" x2="93.71" y2="806.92" gradientTransform="translate(0 -702)" gradientUnits="userSpaceOnUse"><stop offset="0" stop-color="#fff" stop-opacity="0.4"/><stop offset="1" stop-color="#fff" stop-opacity="0.2"/></linearGradient></defs><title>128</title><g id="压缩文件"><g id="_128" data-name="128"><g id="底色-浅橙"><path id="_48" data-name=" 48" class="cls-1" d="M109,92V20A12,12,0,0,0,97,8H31A12,12,0,0,0,19,20v88a12,12,0,0,0,12,12H81Z"/><path class="cls-2" d="M90,92h19L81,120V101A9,9,0,0,1,90,92Z"/></g><path class="cls-3" d="M36,68V78a8,8,0,0,0,8,8h0a8,8,0,0,0,8-8V68ZM47,82H41V76h6Z"/><rect class="cls-4" x="36" y="8" width="16" height="60"/><rect class="cls-3" x="42" y="12" width="10" height="4"/><rect class="cls-3" x="42" y="20" width="10" height="4"/><rect class="cls-3" x="42" y="28" width="10" height="4"/><rect class="cls-3" x="42" y="36" width="10" height="4"/><rect class="cls-3" x="42" y="44" width="10" height="4"/><rect class="cls-3" x="42" y="52" width="10" height="4"/><rect class="cls-3" x="42" y="60" width="10" height="4"/><rect class="cls-3" x="36" y="32" width="10" height="4"/><rect class="cls-3" x="36" y="24" width="10" height="4"/><rect class="cls-3" x="36" y="16" width="10" height="4"/><rect class="cls-3" x="36" y="8" width="10" height="4"/><rect class="cls-3" x="36" y="40" width="10" height="4"/><rect class="cls-3" x="36" y="56" width="10" height="4"/><rect class="cls-3" x="36" y="48" width="10" height="4"/></g></g></svg>
